X:1
T:Symphony No. 1 (finale theme)
C:Johannes Brahms
M:4/4
L:1/4
Q:1/4=92
K:C
% A section — noble, broad, triumphant
G | G A G F | E D C2 | E F G A | B c d2 | c B A G | F2 E2 | G A B c | d c B A | G2 E2 | C4 |]
